X: 31572
T: COTILLION No. 40. YANKEE HILL'S SETT tune 5
C:
%R: reel
B: Elias Howe "The Musician's Companion" Part 3 1844 p.158 #2
S: http://imslp.org/wiki/The_Musician's_Companion_(Howe,_Elias)
Z: 2015 John Chambers <jc:trillian.mit.edu>
M: 2/4
L: 1/16
K: A
% - - - - - - - - - - - - - - - - - - - - - - - - -
cB |\
A2e2 c2a2 | f4 d2B2 | G2B2 E2ed | dcBc A2cB |\
Ae^de ca^ga | =gfff ^efdB | A2c2 BABc | B4 A2 H|]
BA |\
GBeB gebg | baga f2f^d | Bf^da fdBA | BAGA F2GA |\
B2B2 e2e2 | c2c2 a3b | agfe ^defd | e^def e=dc"^D.C."B |]
[K:=f=c=g] E2 |\
A2cB A2a2 | f4 d4 | ^g2e2 g2a2 | a^gab a2cB |\
AECE Acea | f4 d2B2 | e2c2 BABc | A4 "^D.C."z2 |]
% - - - - - - - - - - Dance description - - - - - - - - - -
%%begintext align
%% 2 ladies forward and back,
%% gentlemen the same,
%% balance partners and turn,
%% all chassa across partners and back,
%% all balance partners and turn.
%% Next 2, &c.
%%endtext
% - - - - - - - - - - - - - - - - - - - - - - - - -
%%sep 1 1 300
